projects/seb-pictograms/svg/regular/70-Picto-Regular_black.svg

<svg xmlns="http://www.w3.org/2000/svg" viewBox="0 0 170 170"><path d="M137.5 102.1V40.4a3 3 0 00-3-3H8a3 3 0 00-3 3v61.7a3 3 0 003 3h126.5a3 3 0 003-3zM112 91.3V99H30.5v-7.7a3 3 0 00-3-3 6.1 6.1 0 01-6.1-6.1 3 3 0 00-3-3H11V63h7.5a3 3 0 003-3 6.1 6.1 0 016.1-6.1 3 3 0 003-3v-7.5H112v7.5a3 3 0 003 3 6.1 6.1 0 016 6.1 3 3 0 003 3h7.5v16.3H124a3 3 0 00-3 3 6.1 6.1 0 01-6.1 6.1 3 3 0 00-2.9 2.9zM131.5 57h-4.9a12.1 12.1 0 00-8.7-8.7v-4.9h13.6zm-107-13.6v4.9a12.1 12.1 0 00-8.6 8.7H11V43.4zM11 85.3h4.9a12.1 12.1 0 008.6 8.7v5.1H11zm107 13.8V94a12.1 12.1 0 008.7-8.7h4.9v13.8z"/><path d="M151.3 115.8V54.2h-6v58.7H21.7v6h126.6a3 3 0 003-3.1z"/><path d="M159 67.9v58.7H35.5v6H162a3 3 0 003-3V67.9zM71.3 88.8a17.5 17.5 0 1117.5-17.5 17.5 17.5 0 01-17.5 17.5zm0-29a11.5 11.5 0 1011.5 11.5 11.5 11.5 0 00-11.5-11.5z"/></svg>

<svg id="PIKTO_REGULAR" xmlns="http://www.w3.org/2000/svg" viewBox="0 0 170 170"><title>regular_black</title><path d="M137.5,102.1V40.4a3,3,0,0,0-3-3H8a3,3,0,0,0-3,3v61.7a3,3,0,0,0,3,3H134.5A3,3,0,0,0,137.5,102.1ZM112,91.3v7.7H30.5V91.3a3,3,0,0,0-3-3,6.1,6.1,0,0,1-6.1-6.1,3,3,0,0,0-3-3H11V63h7.5a3,3,0,0,0,3-3,6.1,6.1,0,0,1,6.1-6.1,3,3,0,0,0,3-3V43.4H112v7.5a3,3,0,0,0,3,3A6.1,6.1,0,0,1,121,60a3,3,0,0,0,3,3h7.5V79.3H124a3,3,0,0,0-3,3,6.1,6.1,0,0,1-6.1,6.1A3,3,0,0,0,112,91.3ZM131.5,57h-4.9a12.1,12.1,0,0,0-8.7-8.7V43.4h13.6ZM24.5,43.4v4.9A12.1,12.1,0,0,0,15.9,57H11V43.4ZM11,85.3h4.9A12.1,12.1,0,0,0,24.5,94v5.1H11ZM118,99.1V94a12.1,12.1,0,0,0,8.7-8.7h4.9V99.1Z"/><path d="M151.3,115.8V54.2h-6v58.7H21.7v6H148.3A3,3,0,0,0,151.3,115.8Z"/><path d="M159,67.9v58.7H35.5v6H162a3,3,0,0,0,3-3V67.9Z"/><path d="M71.3,88.8A17.5,17.5,0,1,1,88.8,71.3,17.5,17.5,0,0,1,71.3,88.8Zm0-29A11.5,11.5,0,1,0,82.8,71.3,11.5,11.5,0,0,0,71.3,59.8Z"/></svg>
